X: 20
T: No_114_Rabbit_Dance_Song.krn
N: Derived from No_114_Rabbit_Dance_Song.krn
%%abc-version 2.0
%%abcx-abcm2ps-target-version 5.9.1 (29 Sep 2008)
%%abc-creator hum2abc beta
%%abcx-conversion-date 2019/03/15 08:35:44
%%humdrum-veritas 2270366216
%%humdrum-veritas-data 4258175221
%%linebreak <none>
%%barnumbers 0
L: 1/8
M: 2/4
K: G clef=bass
[K:clef=bass][M:2/4]D2D2 [I:setbarnb 2]| 
C3/B,/B,2 ||  
[M:3/4]G,/G,3/ G,3/G,/G,2 ||  
[M:2/4]B,2B,2 | 
G,3/G,/G,2 ||  
[M:3/4]B,/B,3/ G,3/G,/ G, z ||  
[M:2/4]B,2G,2 | 
G,3/G,/G,2 ||  
[M:3/4]B,/B,3/ G,3/G,/ G, z | 
[M:2/4]B,2G,2 | 
G,3/G,/G,2 ||  
[M:3/4]B,/B,3/ G,3/G,/ G, z :|]  



